icons/li.svg

<?xml version="1.0" ?>
<svg xmlns="http://www.w3.org/2000/svg" xmlns:ev="http://www.w3.org/2001/xml-events" xmlns:xlink="http://www.w3.org/1999/xlink" baseProfile="full" height="600px" version="1.1" viewBox="2034.2189880092626 -1022.2924081632652 6175.685556680062 12290.788897959183" width="302px">
	<defs/>
	<path d="M 4410.0,10168.0 C 4410.0,10048.0 4377.0,9875.0 4337.0,9776.0 C 4317.0,9727.0 4286.0,9635.0 4270.0,9571.0 C 4218.0,9374.0 4170.0,9241.0 4095.0,9083.0 C 4002.0,8890.0 3832.0,8577.0 3767.0,8480.0 C 3739.0,8439.0 3699.0,8369.0 3677.0,8325.0 C 3656.0,8281.0 3626.0,8230.0 3610.0,8210.0 C 3573.0,8163.0 3554.0,8123.0 3546.0,8076.0 C 3542.0,8054.0 3525.0,8020.0 3509.0,8001.0 C 3483.0,7969.0 3480.0,7959.0 3480.0,7890.0 C 3480.0,7781.0 3453.0,7583.0 3431.0,7525.0 C 3405.0,7458.0 3370.0,7381.0 3258.0,7145.0 C 3205.0,7035.0 3137.0,6881.0 3105.0,6802.0 C 3056.0,6679.0 3047.0,6644.0 3035.0,6542.0 C 3011.0,6345.0 3016.0,6146.0 3050.0,5898.0 C 3092.0,5593.0 3138.0,5404.0 3200.0,5280.0 C 3215.0,5250.0 3231.0,5200.0 3235.0,5170.0 C 3240.0,5135.0 3260.0,5080.0 3291.0,5020.0 C 3317.0,4968.0 3349.0,4896.0 3362.0,4860.0 C 3375.0,4824.0 3424.0,4734.0 3471.0,4660.0 C 3572.0,4501.0 3692.0,4277.0 3721.0,4194.0 C 3751.0,4106.0 3807.0,3855.0 3815.0,3770.0 C 3819.0,3729.0 3835.0,3640.0 3851.0,3573.0 C 3883.0,3437.0 3919.0,3230.0 3950.0,3005.0 C 3962.0,2923.0 3990.0,2785.0 4013.0,2700.0 L 4055.0,2545.0 L 4055.0,2315.0 C 4055.0,2098.0 4054.0,2081.0 4031.0,2015.0 C 4006.0,1944.0 3954.0,1852.0 3891.0,1769.0 C 3854.0,1720.0 3702.0,1592.0 3520.0,1455.0 C 3462.0,1412.0 3361.0,1331.0 3295.0,1275.0 C 3113.0,1122.0 3066.0,1088.0 2935.0,1020.0 C 2869.0,985.0 2760.0,920.0 2692.0,876.0 C 2581.0,803.0 2568.0,791.0 2559.0,756.0 C 2546.0,710.0 2556.0,561.0 2575.0,510.0 C 2582.0,491.0 2599.0,446.0 2613.0,410.0 C 2626.0,374.0 2643.0,303.0 2650.0,252.0 L 2663.0,159.0 L 2693.0,162.0 L 2724.0,165.0 L 2721.0,231.0 C 2718.0,305.0 2722.0,310.0 2790.0,329.0 C 2815.0,336.0 2843.0,344.0 2853.0,346.0 C 2868.0,351.0 2870.0,345.0 2868.0,293.0 C 2866.0,243.0 2872.0,223.0 2906.0,150.0 C 2942.0,75.0 2983.0,19.0 2994.0,31.0 C 2995.0,33.0 3029.0,96.0 3068.0,170.0 C 3173.0,368.0 3192.0,385.0 3262.0,349.0 C 3286.0,337.0 3319.0,314.0 3336.0,298.0 C 3357.0,278.0 3376.0,269.0 3391.0,272.0 C 3411.0,274.0 3417.0,285.0 3430.0,336.0 L 3445.0,398.0 L 3473.0,383.0 C 3507.0,366.0 3550.0,365.0 3712.0,378.0 C 3857.0,390.0 3901.0,408.0 3920.0,463.0 C 3945.0,536.0 3962.0,546.0 4133.0,585.0 C 4220.0,604.0 4316.0,632.0 4347.0,645.0 C 4377.0,659.0 4415.0,670.0 4431.0,670.0 C 4450.0,670.0 4466.0,680.0 4483.0,702.0 C 4508.0,733.0 4556.0,753.0 4636.0,767.0 C 4668.0,772.0 4720.0,750.0 4830.0,685.0 C 4860.0,667.0 4906.0,644.0 4931.0,635.0 C 4970.0,621.0 4983.0,609.0 5004.0,570.0 C 5018.0,543.0 5050.0,501.0 5074.0,475.0 C 5121.0,426.0 5132.0,390.0 5145.0,240.0 C 5156.0,123.0 5169.0,75.0 5198.0,48.0 C 5249.0,0.0 5344.0,-8.0 5387.0,31.0 C 5459.0,95.0 5506.0,119.0 5594.0,134.0 C 5643.0,143.0 5697.0,159.0 5717.0,171.0 C 5749.0,191.0 5767.0,194.0 5884.0,194.0 L 6015.0,195.0 L 6095.0,242.0 C 6139.0,267.0 6194.0,293.0 6217.0,300.0 C 6243.0,308.0 6262.0,321.0 6269.0,336.0 C 6284.0,370.0 6320.0,389.0 6391.0,402.0 C 6440.0,410.0 6461.0,420.0 6485.0,444.0 C 6501.0,461.0 6538.0,484.0 6565.0,495.0 C 6608.0,512.0 6616.0,520.0 6624.0,552.0 C 6631.0,582.0 6641.0,592.0 6669.0,603.0 C 6702.0,616.0 6707.0,616.0 6729.0,599.0 C 6785.0,554.0 6840.0,587.0 6898.0,699.0 C 6921.0,745.0 6940.0,791.0 6940.0,803.0 C 6940.0,815.0 6956.0,870.0 6975.0,925.0 C 7020.0,1054.0 7020.0,1091.0 6975.0,1166.0 C 6928.0,1243.0 6926.0,1256.0 6941.0,1340.0 L 6953.0,1410.0 L 7002.0,1410.0 C 7028.0,1410.0 7077.0,1401.0 7111.0,1389.0 C 7144.0,1377.0 7173.0,1370.0 7174.0,1371.0 C 7176.0,1373.0 7208.0,1420.0 7245.0,1475.0 C 7283.0,1530.0 7315.0,1576.0 7316.0,1578.0 C 7317.0,1580.0 7382.0,1588.0 7461.0,1596.0 C 7636.0,1614.0 7640.0,1617.0 7640.0,1709.0 C 7640.0,1758.0 7647.0,1789.0 7665.0,1828.0 C 7707.0,1919.0 7697.0,2091.0 7640.0,2254.0 C 7616.0,2323.0 7449.0,2650.0 7396.0,2730.0 C 7376.0,2760.0 7359.0,2787.0 7358.0,2790.0 C 7356.0,2793.0 7341.0,2806.0 7324.0,2818.0 C 7277.0,2850.0 7274.0,2880.0 7309.0,2948.0 C 7349.0,3025.0 7369.0,3098.0 7377.0,3197.0 C 7383.0,3277.0 7384.0,3280.0 7441.0,3357.0 C 7488.0,3419.0 7510.0,3439.0 7549.0,3456.0 C 7605.0,3481.0 7627.0,3513.0 7637.0,3585.0 C 7640.0,3609.0 7654.0,3644.0 7667.0,3662.0 L 7691.0,3695.0 L 7662.0,3701.0 C 7647.0,3704.0 7590.0,3737.0 7536.0,3773.0 C 7483.0,3810.0 7432.0,3840.0 7424.0,3840.0 C 7395.0,3840.0 7380.0,3904.0 7380.0,4025.0 C 7380.0,4119.0 7376.0,4148.0 7361.0,4178.0 C 7351.0,4198.0 7337.0,4234.0 7331.0,4257.0 C 7320.0,4295.0 7322.0,4303.0 7344.0,4338.0 C 7357.0,4359.0 7377.0,4406.0 7388.0,4442.0 L 7408.0,4508.0 L 7374.0,4541.0 C 7338.0,4575.0 7283.0,4678.0 7265.0,4743.0 L 7255.0,4781.0 L 7168.0,4715.0 C 7120.0,4678.0 7078.0,4640.0 7075.0,4631.0 C 7069.0,4610.0 6996.0,4590.0 6924.0,4590.0 C 6806.0,4590.0 6734.0,4666.0 6699.0,4827.0 C 6677.0,4929.0 6662.0,4968.0 6635.0,4990.0 C 6624.0,4999.0 6621.0,5012.0 6626.0,5034.0 C 6645.0,5139.0 6497.0,5304.0 6260.0,5440.0 C 6219.0,5464.0 6138.0,5521.0 6081.0,5567.0 C 5963.0,5662.0 5943.0,5667.0 5860.0,5625.0 C 5817.0,5603.0 5797.0,5600.0 5713.0,5600.0 C 5630.0,5600.0 5607.0,5604.0 5561.0,5625.0 L 5507.0,5650.0 L 5514.0,5692.0 C 5522.0,5740.0 5535.0,5760.0 5559.0,5760.0 C 5568.0,5760.0 5586.0,5769.0 5600.0,5780.0 C 5614.0,5791.0 5631.0,5800.0 5638.0,5800.0 C 5645.0,5800.0 5671.0,5831.0 5695.0,5870.0 C 5720.0,5908.0 5745.0,5942.0 5750.0,5945.0 C 5766.0,5955.0 5762.0,6245.0 5745.0,6325.0 C 5737.0,6364.0 5730.0,6437.0 5730.0,6488.0 L 5730.0,6581.0 L 5838.0,6698.0 C 5941.0,6810.0 5946.0,6819.0 5972.0,6900.0 C 6019.0,7048.0 6069.0,7181.0 6091.0,7211.0 C 6102.0,7227.0 6108.0,7245.0 6104.0,7252.0 C 6100.0,7259.0 6052.0,7307.0 5999.0,7358.0 C 5912.0,7440.0 5901.0,7456.0 5890.0,7501.0 C 5883.0,7529.0 5865.0,7566.0 5851.0,7584.0 C 5836.0,7601.0 5817.0,7631.0 5810.0,7649.0 C 5802.0,7668.0 5784.0,7698.0 5770.0,7714.0 C 5756.0,7731.0 5722.0,7783.0 5695.0,7829.0 C 5643.0,7915.0 5641.0,7918.0 5551.0,7945.0 C 5512.0,7957.0 5478.0,7978.0 5428.0,8023.0 C 5355.0,8089.0 5330.0,8098.0 5234.0,8099.0 C 5202.0,8100.0 5178.0,8105.0 5170.0,8114.0 C 5161.0,8125.0 5152.0,8127.0 5133.0,8119.0 C 5119.0,8114.0 5105.0,8112.0 5102.0,8115.0 C 5093.0,8124.0 5178.0,8327.0 5223.0,8405.0 C 5292.0,8525.0 5385.0,8662.0 5454.0,8745.0 C 5562.0,8875.0 5565.0,8963.0 5466.0,9095.0 C 5437.0,9133.0 5399.0,9193.0 5381.0,9227.0 C 5325.0,9332.0 4983.0,9653.0 4877.0,9700.0 C 4851.0,9712.0 4825.0,9731.0 4819.0,9743.0 C 4813.0,9755.0 4793.0,9781.0 4776.0,9800.0 C 4747.0,9831.0 4699.0,9953.0 4688.0,10024.0 C 4686.0,10037.0 4673.0,10047.0 4652.0,10052.0 C 4631.0,10058.0 4589.0,10091.0 4531.0,10150.0 C 4482.0,10200.0 4435.0,10240.0 4426.0,10240.0 C 4413.0,10240.0 4410.0,10227.0 4410.0,10168.0" fill="pink"/>
</svg>

<?xml version="1.0" standalone="no"?>
<!DOCTYPE svg PUBLIC "-//W3C//DTD SVG 20010904//EN"
 "http://www.w3.org/TR/2001/REC-SVG-20010904/DTD/svg10.dtd">
<svg version="1.0" xmlns="http://www.w3.org/2000/svg"
 width="1024.000000pt" height="1024.000000pt" viewBox="0 0 1024.000000 1024.000000"
 preserveAspectRatio="xMidYMid meet">
<metadata>
Created by potrace 1.10, written by Peter Selinger 2001-2011
</metadata>
<g transform="translate(0.000000,1024.000000) scale(0.100000,-0.100000)"
fill="#000000" stroke="none">
<path d="M4410 10168 c0 -120 -33 -293 -73 -392 -20 -49 -51 -141 -67 -205
-52 -197 -100 -330 -175 -488 -93 -193 -263 -506 -328 -603 -28 -41 -68 -111
-90 -155 -21 -44 -51 -95 -67 -115 -37 -47 -56 -87 -64 -134 -4 -22 -21 -56
-37 -75 -26 -32 -29 -42 -29 -111 0 -109 -27 -307 -49 -365 -26 -67 -61 -144
-173 -380 -53 -110 -121 -264 -153 -343 -49 -123 -58 -158 -70 -260 -24 -197
-19 -396 15 -644 42 -305 88 -494 150 -618 15 -30 31 -80 35 -110 5 -35 25
-90 56 -150 26 -52 58 -124 71 -160 13 -36 62 -126 109 -200 101 -159 221
-383 250 -466 30 -88 86 -339 94 -424 4 -41 20 -130 36 -197 32 -136 68 -343
99 -568 12 -82 40 -220 63 -305 l42 -155 0 -230 c0 -217 -1 -234 -24 -300 -25
-71 -77 -163 -140 -246 -37 -49 -189 -177 -371 -314 -58 -43 -159 -124 -225
-180 -182 -153 -229 -187 -360 -255 -66 -35 -175 -100 -243 -144 -111 -73
-124 -85 -133 -120 -13 -46 -3 -195 16 -246 7 -19 24 -64 38 -100 13 -36 30
-107 37 -158 l13 -93 30 3 31 3 -3 66 c-3 74 1 79 69 98 25 7 53 15 63 17 15
5 17 -1 15 -53 -2 -50 4 -70 38 -143 36 -75 77 -131 88 -119 1 2 35 65 74 139
105 198 124 215 194 179 24 -12 57 -35 74 -51 21 -20 40 -29 55 -26 20 2 26
13 39 64 l15 62 28 -15 c34 -17 77 -18 239 -5 145 12 189 30 208 85 25 73 42
83 213 122 87 19 183 47 214 60 30 14 68 25 84 25 19 0 35 10 52 32 25 31 73
51 153 65 32 5 84 -17 194 -82 30 -18 76 -41 101 -50 39 -14 52 -26 73 -65 14
-27 46 -69 70 -95 47 -49 58 -85 71 -235 11 -117 24 -165 53 -192 51 -48 146
-56 189 -17 72 64 119 88 207 103 49 9 103 25 123 37 32 20 50 23 167 23 l131
1 80 47 c44 25 99 51 122 58 26 8 45 21 52 36 15 34 51 53 122 66 49 8 70 18
94 42 16 17 53 40 80 51 43 17 51 25 59 57 7 30 17 40 45 51 33 13 38 13 60
-4 56 -45 111 -12 169 100 23 46 42 92 42 104 0 12 16 67 35 122 45 129 45
166 0 241 -47 77 -49 90 -34 174 l12 70 49 0 c26 0 75 -9 109 -21 33 -12 62
-19 63 -18 2 2 34 49 71 104 38 55 70 101 71 103 1 2 66 10 145 18 175 18 179
21 179 113 0 49 7 80 25 119 42 91 32 263 -25 426 -24 69 -191 396 -244 476
-20 30 -37 57 -38 60 -2 3 -17 16 -34 28 -47 32 -50 62 -15 130 40 77 60 150
68 249 6 80 7 83 64 160 47 62 69 82 108 99 56 25 78 57 88 129 3 24 17 59 30
77 l24 33 -29 6 c-15 3 -72 36 -126 72 -53 37 -104 67 -112 67 -29 0 -44 64
-44 185 0 94 -4 123 -19 153 -10 20 -24 56 -30 79 -11 38 -9 46 13 81 13 21
33 68 44 104 l20 66 -34 33 c-36 34 -91 137 -109 202 l-10 38 -87 -66 c-48
-37 -90 -75 -93 -84 -6 -21 -79 -41 -151 -41 -118 0 -190 76 -225 237 -22 102
-37 141 -64 163 -11 9 -14 22 -9 44 19 105 -129 270 -366 406 -41 24 -122 81
-179 127 -118 95 -138 100 -221 58 -43 -22 -63 -25 -147 -25 -83 0 -106 4
-152 25 l-54 25 7 42 c8 48 21 68 45 68 9 0 27 9 41 20 14 11 31 20 38 20 7 0
33 31 57 70 25 38 50 72 55 75 16 10 12 300 -5 380 -8 39 -15 112 -15 163 l0
93 108 117 c103 112 108 121 134 202 47 148 97 281 119 311 11 16 17 34 13 41
-4 7 -52 55 -105 106 -87 82 -98 98 -109 143 -7 28 -25 65 -39 83 -15 17 -34
47 -41 65 -8 19 -26 49 -40 65 -14 17 -48 69 -75 115 -52 86 -54 89 -144 116
-39 12 -73 33 -123 78 -73 66 -98 75 -194 76 -32 1 -56 6 -64 15 -9 11 -18 13
-37 5 -14 -5 -28 -7 -31 -4 -9 9 76 212 121 290 69 120 162 257 231 340 108
130 111 218 12 350 -29 38 -67 98 -85 132 -56 105 -398 426 -504 473 -26 12
-52 31 -58 43 -6 12 -26 38 -43 57 -29 31 -77 153 -88 224 -2 13 -15 23 -36
28 -21 6 -63 39 -121 98 -49 50 -96 90 -105 90 -13 0 -16 -13 -16 -72z"/>
</g>
</svg>
